packages/icons/raw/imported/SecurityMagnet.svg

<svg width="32" height="32" viewBox="0 0 32 32" fill="none" xmlns="http://www.w3.org/2000/svg">
<path d="M6.5 10.3846C6.22386 10.3846 6 10.6085 6 10.8846C6 11.1608 6.22386 11.3846 6.5 11.3846V10.3846ZM11.6154 11.3846C11.8915 11.3846 12.1154 11.1608 12.1154 10.8846C12.1154 10.6085 11.8915 10.3846 11.6154 10.3846V11.3846ZM20.3846 10.3846C20.1085 10.3846 19.8846 10.6085 19.8846 10.8846C19.8846 11.1608 20.1085 11.3846 20.3846 11.3846V10.3846ZM25.5 11.3846C25.7761 11.3846 26 11.1608 26 10.8846C26 10.6085 25.7761 10.3846 25.5 10.3846V11.3846ZM6.5 11.3846H11.6154V10.3846H6.5V11.3846ZM20.3846 11.3846H25.5V10.3846H20.3846V11.3846ZM8.5 7H9.61539V6H8.5V7ZM7 16V8.5H6V16H7ZM16 25C11.0294 25 7 20.9706 7 16H6C6 21.5228 10.4772 26 16 26V25ZM25 16C25 20.9706 20.9706 25 16 25V26C21.5228 26 26 21.5228 26 16H25ZM25 8.5V16H26V8.5H25ZM22.3846 7H23.5V6H22.3846V7ZM19.8846 8.5V16H20.8846V8.5H19.8846ZM19.8846 16C19.8846 18.1454 18.1454 19.8846 16 19.8846V20.8846C18.6977 20.8846 20.8846 18.6977 20.8846 16H19.8846ZM16 19.8846C13.8546 19.8846 12.1154 18.1454 12.1154 16H11.1154C11.1154 18.6977 13.3023 20.8846 16 20.8846V19.8846ZM12.1154 16V8.5H11.1154V16H12.1154ZM22.3846 6C21.0039 6 19.8846 7.11929 19.8846 8.5H20.8846C20.8846 7.67157 21.5562 7 22.3846 7V6ZM9.61539 7C10.4438 7 11.1154 7.67157 11.1154 8.5H12.1154C12.1154 7.11929 10.9961 6 9.61539 6V7ZM26 8.5C26 7.11929 24.8807 6 23.5 6V7C24.3284 7 25 7.67157 25 8.5H26ZM8.5 6C7.11929 6 6 7.11929 6 8.5H7C7 7.67157 7.67157 7 8.5 7V6Z" fill="black"/>
</svg>

<svg width="32" height="32" fill="none" xmlns="http://www.w3.org/2000/svg"><path d="M6.5 10.385a.5.5 0 0 0 0 1v-1Zm5.115 1a.5.5 0 1 0 0-1v1Zm8.77-1a.5.5 0 0 0 0 1v-1Zm5.115 1a.5.5 0 1 0 0-1v1Zm-19 0h5.115v-1H6.5v1Zm13.885 0H25.5v-1h-5.115v1ZM8.5 7h1.115V6H8.5v1ZM7 16V8.5H6V16h1Zm9 9a9 9 0 0 1-9-9H6c0 5.523 4.477 10 10 10v-1Zm9-9a9 9 0 0 1-9 9v1c5.523 0 10-4.477 10-10h-1Zm0-7.5V16h1V8.5h-1ZM22.385 7H23.5V6h-1.115v1Zm-2.5 1.5V16h1V8.5h-1Zm0 7.5A3.885 3.885 0 0 1 16 19.885v1A4.885 4.885 0 0 0 20.885 16h-1ZM16 19.885A3.885 3.885 0 0 1 12.115 16h-1A4.885 4.885 0 0 0 16 20.885v-1ZM12.115 16V8.5h-1V16h1Zm10.27-10a2.5 2.5 0 0 0-2.5 2.5h1a1.5 1.5 0 0 1 1.5-1.5V6ZM9.615 7a1.5 1.5 0 0 1 1.5 1.5h1a2.5 2.5 0 0 0-2.5-2.5v1ZM26 8.5A2.5 2.5 0 0 0 23.5 6v1A1.5 1.5 0 0 1 25 8.5h1ZM8.5 6A2.5 2.5 0 0 0 6 8.5h1A1.5 1.5 0 0 1 8.5 7V6Z" fill="#000"/></svg>
